!!!SOCIAL_FUNCTION:	war songs
!!!PDT:	1929
!!!OTL: No_128_The_Apache_Hid_Behind_Trees.krn
!!!REG: Southwest
!!!LANG: Non-Tone
!!!LING_GROUP: Uto-Aztecan
**kern
*staff1
*clefF4
*k[f#]
*M2/4
8E\L
8E\J
=1
8B\L
8B\J
16B\LL
16A\J
8G\J
=2
8A\L
8A\J
16A\LK
8.A\J
=3
8F#\
8r
16A\LL
16F#\J
8F#\J
=4||
*M3/4
16B\LL
16A\J
8A\J
16F#\LK
[8.E\J
8E\L]
8E\J
=5||
*M2/4
4E\
8D\
8r
=6
4E\
8.F#\L
16E\Jk
=7
16F#\LK
8.F#\J
4E\
=8||
*M3/4
4E\
4r
8E\L
8E\J
=9||
*M2/4
8B\L
8B\J
16B\LL
16A\J
8G\J
=10
8A\L
8A\J
16A\LK
8.A\J
=11
8F#\
8r
16A\LL
16F#\J
8F#\J
=12||
*M3/4
16B\LL
16A\J
8A\J
16F#\LK
[8.E\J
8E\L]
8E\J
=13||
*M2/4
4E\
8D\
8r
=14
4E\
8.F#\L
16E\Jk
=15
16F#\LK
8.F#\J
4E\
=16||
*M3/4
4E\
4r
16A\LK
8.F#\J
=17||
*M2/4
8B\L
16B\L
16B\JJ
16A\LK
8.F#\J
=18||
*M3/4
8A\L
16A\L
16A\JJ
16F#\LK
[8.E\J
8E\L]
8E\J
=19||
*M2/4
4E\
8D\
8r
=20
4E\
8.F#\L
16E\Jk
=21
16F#\LK
8.F#\J
4E\
=22||
*M3/4
4E\
4r
8.A\L
16F#\Jk
=23||
*M2/4
8B\L
16B\L
16B\JJ
16A\LK
8.F#\J
=24||
*M3/4
8A\L
16A\L
16A\JJ
16F#\LK
[8.E\J
8E\L]
8E\J
=25||
*M2/4
4E\
8D\
8r
=26
4E\
8.F#\L
16E\Jk
=27
16F#\LK
8.F#\J
4E\
=28
2E\
==
*-
